build/img/tooth.svg

<svg width="32" height="41" viewBox="0 0 32 41" fill="none" xmlns="http://www.w3.org/2000/svg">
<path d="M28.2086 24.4404C28.2086 23.1108 28.8286 22.168 28.8286 22.168L28.8763 22.0955L28.924 21.9988C31.6662 16.8496 31.9762 12.4257 32 12.2323V12.1356C32 3.96462 26.7064 0.628538 23.8927 0.0241745L23.7496 0H23.6066C21.5797 0 18.5037 2.94929 17.1684 4.32724C16.7392 4.64151 16.2861 4.66568 16.1431 4.66568L16.0477 4.64151L15.8569 4.66568H15.8331C15.69 4.66568 15.237 4.64151 14.8077 4.32724C13.4963 2.94929 10.4203 0 8.41729 0H8.27422L8.1073 0.0241745C5.29359 0.652712 0 3.96462 0 12.1598V12.2565C0.023845 12.4257 0.33383 16.8738 3.07601 21.9988L3.17139 22.1439C3.17139 22.1439 3.79136 23.0867 3.79136 24.4163V24.4404C3.83905 26.8096 3.71982 30.6049 3.3383 31.6445L3.29061 31.8379C3.24292 32.0071 2.31297 36.0684 4.64978 38.6551C5.22206 39.4045 6.60507 41 8.08346 41C9.27571 41 11.0641 39.9847 11.0641 37.2046V37.1321C11.0641 37.0837 10.8972 32.7565 12.9478 30.5808C13.7347 29.7588 14.7362 29.3479 16.0238 29.3479C17.3115 29.3479 18.313 29.7588 19.0999 30.5808C21.1505 32.7565 20.9836 37.0837 20.9836 37.1321V37.2046C20.9836 39.9847 22.772 41 23.9642 41C25.4426 41 26.8256 39.4045 27.3979 38.6551C29.7347 36.0684 28.8048 32.0071 28.7571 31.8379L28.7094 31.6445C28.3279 30.6291 28.2086 26.8096 28.2563 24.4404H28.2086ZM26.4441 20.5725C26.1818 20.9593 25.3472 22.4098 25.3472 24.4163C25.3234 25.48 25.2757 30.605 25.9672 32.5873C26.1341 33.3608 26.3249 35.5607 25.2519 36.7211L25.1565 36.842C24.7988 37.3255 24.2504 37.8573 23.9404 38.0507C23.9165 37.9298 23.845 37.5914 23.845 37.2288C23.8689 36.6728 23.9642 31.5719 21.1744 28.5985C19.839 27.1722 18.1222 26.4711 16.0238 26.4711C13.9255 26.4711 12.2086 27.1963 10.8733 28.5985C8.05961 31.5719 8.17884 36.6728 8.20268 37.2288C8.20268 37.6397 8.13115 37.9057 8.05961 38.0265C7.74963 37.809 7.24888 37.3013 6.89121 36.842L6.79583 36.7211C5.7228 35.5607 5.88972 33.4092 6.08048 32.5873C6.77198 30.5808 6.72429 25.48 6.70045 24.4163C6.70045 22.3856 5.86587 20.9593 5.60358 20.5725C3.29061 16.2695 2.90909 12.5224 2.8614 12.0873C2.88525 5.07665 7.43964 3.23939 8.51267 2.92512C9.27571 3.16686 11.2548 4.76238 12.8763 6.43042L13.0194 6.57547C14.1639 7.46993 15.38 7.56663 15.8569 7.56663C15.9046 7.56663 15.9762 7.56663 16 7.56663C16.0477 7.56663 16.0954 7.56663 16.1431 7.56663C16.62 7.56663 17.8599 7.46993 18.9806 6.57547L19.1237 6.43042C20.7452 4.73821 22.7481 3.14269 23.4873 2.92512C24.5365 3.23939 29.1148 5.07665 29.1386 12.0873C29.0909 12.5224 28.7094 16.2936 26.4441 20.5725Z" fill="white"/>
<path d="M7.79732 4.83491C7.65425 4.90743 4.33979 6.69634 4.69747 10.2983C4.74516 10.661 5.05514 10.9511 5.41282 10.9511C5.43666 10.9511 5.46051 10.9511 5.48435 10.9511C5.86587 10.9027 6.17586 10.5643 6.12817 10.1533C5.86587 7.54245 8.3696 6.18868 8.46498 6.11616C8.82265 5.92276 8.94188 5.48762 8.77496 5.14917C8.5842 4.78656 8.15499 4.64151 7.79732 4.83491Z" fill="white"/>
</svg>

<svg width="32" height="41" fill="none" xmlns="http://www.w3.org/2000/svg"><path d="M28.209 24.44c0-1.33.62-2.272.62-2.272l.047-.072.048-.097c2.742-5.15 3.052-9.573 3.076-9.767v-.096C32 3.965 26.706.629 23.893.024L23.75 0h-.143c-2.027 0-5.103 2.95-6.439 4.327a1.778 1.778 0 01-1.025.339l-.095-.024-.191.024h-.024c-.143 0-.596-.024-1.025-.339C13.496 2.95 10.42 0 8.418 0h-.144l-.167.024C5.294.653 0 3.964 0 12.16v.097c.024.169.334 4.617 3.076 9.742l.095.145s.62.943.62 2.272v.024c.048 2.37-.071 6.165-.453 7.204l-.047.194c-.048.17-.978 4.23 1.359 6.817.572.75 1.955 2.345 3.433 2.345 1.193 0 2.981-1.015 2.981-3.795v-.073c0-.048-.167-4.375 1.884-6.551.787-.822 1.788-1.233 3.076-1.233 1.287 0 2.289.41 3.076 1.233 2.05 2.176 1.884 6.503 1.884 6.551v.073c0 2.78 1.788 3.795 2.98 3.795 1.479 0 2.862-1.596 3.434-2.345 2.337-2.587 1.407-6.648 1.36-6.817l-.049-.194c-.381-1.015-.5-4.834-.453-7.204h-.047zm-1.765-3.867c-.262.386-1.097 1.837-1.097 3.843-.024 1.064-.071 6.189.62 8.171.167.774.358 2.974-.715 4.134l-.095.121c-.358.483-.907 1.015-1.217 1.209-.024-.121-.095-.46-.095-.822.024-.556.12-5.657-2.67-8.63-1.336-1.427-3.053-2.128-5.151-2.128-2.099 0-3.815.725-5.15 2.128-2.814 2.973-2.695 8.074-2.671 8.63 0 .41-.072.677-.143.797-.31-.217-.811-.725-1.169-1.184l-.095-.12c-1.073-1.161-.906-3.313-.716-4.135.692-2.006.644-7.107.62-8.17 0-2.031-.834-3.458-1.096-3.845-2.313-4.302-2.695-8.05-2.743-8.485.024-7.01 4.579-8.848 5.652-9.162.763.242 2.742 1.837 4.363 3.505l.143.145a4.696 4.696 0 002.838.992h.286c.477 0 1.717-.097 2.838-.992l.143-.145c1.621-1.692 3.624-3.287 4.363-3.505 1.05.314 5.628 2.152 5.652 9.162-.048.435-.43 4.207-2.695 8.486z" fill="#fff"/><path d="M7.797 4.835c-.143.072-3.457 1.861-3.1 5.463.048.363.358.653.716.653h.071c.382-.048.692-.387.644-.798-.262-2.61 2.242-3.964 2.337-4.037a.734.734 0 00.31-.967.715.715 0 00-.978-.314z" fill="#fff"/></svg>
